src/main/resources/icons/JetgroovyIcons/icons/groovy/abstractProperty.svg

<svg xmlns="http://www.w3.org/2000/svg" width="16" height="16" viewBox="0 0 16 16">
  <g fill="none" fill-rule="evenodd">
    <path fill="#9AA7B0" fill-opacity=".6" d="M4 12L4 15C2.34314575 15 1 13.6568542 1 12L1 4C1 2.34314575 2.34314575 1 4 1L4 5 5 5 5 12 4 12zM12 5L12 1C13.6568542 1 15 2.34314575 15 4L15 12C15 13.6568542 13.6568542 15 12 15L12 12 11 12 11 5 12 5z"/>
    <polygon fill="#B99BF8" fill-opacity=".6" points="5 1 11 1 11 15 5 15"/>
    <path fill="#231F20" fill-opacity=".7" d="M0.9974,2.8021 C0.9974,3.83569336 1.23855513,4.8771 2.5354,4.8771 C3.83224487,4.8771 4,3.4641 4,2.7921 C4,2.1061 3.90228271,0.7461 2.5244,0.7461 C1.14651729,0.7461 0.9974,1.76850664 0.9974,2.8021 Z M1,5 C1.008,5.074 1.00713333,6.074 0.9974,8 L0.0004,8 L0.0004,0.0001 L0.9974,0.0001 L0.9974,0.7461 C1.36693099,0.248766667 1.93993099,0.0001 2.7164,0.0001 C3.88110352,0.0001 5.0004,0.578186035 5.0004,2.8021 C5.0004,5.02601396 3.65454102,5.6231 2.7164,5.6231 C2.09097266,5.6231 1.51883932,5.4154 1,5 Z" transform="translate(6 5)"/>
  </g>
</svg>

<svg xmlns="http://www.w3.org/2000/svg" width="16" height="16" viewBox="0 0 16 16"><rect id="frame" width="16" height="16" fill="none"/><g fill="none" fill-rule="evenodd"><path fill="#9AA7B0" fill-opacity=".6" d="M4 12v3a3 3 0 0 1-3-3V4a3 3 0 0 1 3-3v4h1v7H4zm8-7V1a3 3 0 0 1 3 3v8a3 3 0 0 1-3 3v-3h-1V5h1z"/><path fill="#B99BF8" fill-opacity=".6" d="M5 1h6v14H5z"/><path fill="#231F20" fill-opacity=".7" d="M6.997 7.802c0 1.034.242 2.075 1.538 2.075C9.832 9.877 10 8.464 10 7.792c0-.686-.098-2.046-1.476-2.046-1.377 0-1.527 1.023-1.527 2.056zM7 10c.008.074.007 1.074-.003 3H6V5h.997v.746C7.367 5.25 7.94 5 8.717 5 9.88 5 11 5.578 11 7.802s-1.345 2.821-2.284 2.821c-.625 0-1.197-.208-1.716-.623z"/></g></svg>
